ix/grid-3_outline.svg

<svg viewBox="0 0 24 24" fill="none" xmlns="http://www.w3.org/2000/svg" height="1em" width="1em">
  <path d="M15 22.75H9c-5.43 0-7.75-2.32-7.75-7.75V9c0-5.43 2.32-7.75 7.75-7.75h6c5.43 0 7.75 2.32 7.75 7.75v6c0 5.43-2.32 7.75-7.75 7.75Zm-6-20C4.39 2.75 2.75 4.39 2.75 9v6c0 4.61 1.64 6.25 6.25 6.25h6c4.61 0 6.25-1.64 6.25-6.25V9c0-4.61-1.64-6.25-6.25-6.25H9Z" fill="#292D32"/>
  <path d="M12 22.75c-.41 0-.75-.34-.75-.75V2c0-.41.34-.75.75-.75s.75.34.75.75v20c0 .41-.34.75-.75.75Z" fill="#292D32"/>
  <path d="M12 10.25H2c-.41 0-.75-.34-.75-.75s.34-.75.75-.75h10c.41 0 .75.34.75.75s-.34.75-.75.75Zm10 5H12c-.41 0-.75-.34-.75-.75s.34-.75.75-.75h10c.41 0 .75.34.75.75s-.34.75-.75.75Z" fill="#292D32"/>
</svg>

<svg viewBox="0 0 24 24" fill="none" xmlns="http://www.w3.org/2000/svg" height="1em" width="1em">
  <path d="M15 22.75H9C3.57 22.75 1.25 20.43 1.25 15V9C1.25 3.57 3.57 1.25 9 1.25H15C20.43 1.25 22.75 3.57 22.75 9V15C22.75 20.43 20.43 22.75 15 22.75ZM9 2.75C4.39 2.75 2.75 4.39 2.75 9V15C2.75 19.61 4.39 21.25 9 21.25H15C19.61 21.25 21.25 19.61 21.25 15V9C21.25 4.39 19.61 2.75 15 2.75H9Z" fill="#292D32"/>
  <path d="M12 22.75C11.59 22.75 11.25 22.41 11.25 22V2C11.25 1.59 11.59 1.25 12 1.25C12.41 1.25 12.75 1.59 12.75 2V22C12.75 22.41 12.41 22.75 12 22.75Z" fill="#292D32"/>
  <path d="M12 10.25H2C1.59 10.25 1.25 9.91 1.25 9.5C1.25 9.09 1.59 8.75 2 8.75H12C12.41 8.75 12.75 9.09 12.75 9.5C12.75 9.91 12.41 10.25 12 10.25Z" fill="#292D32"/>
  <path d="M22 15.25H12C11.59 15.25 11.25 14.91 11.25 14.5C11.25 14.09 11.59 13.75 12 13.75H22C22.41 13.75 22.75 14.09 22.75 14.5C22.75 14.91 22.41 15.25 22 15.25Z" fill="#292D32"/>
</svg>
